X:1569
T:Dog Big Dog Little
O:england
M:C|
L:1/8
Q:250
C:Charlie Lennon
R:R
A:Co. Leitrim
B:Musical Memories Vol. 1
D:Frankie Gavin, "Up & Away"
K:D
d2 dc d2 AF | d2 fd (3Bcd ec | dcde dAFA | BGEA FDFA |
dfec d2 AF | defd (3Bcd ec | defd dAFA | BGEA FDFA ||
BE (3EEE BEcE | BE (3EEE ABcd | BE (3EEE BEcE | dcdA FGAd |
BE (3EEE BEcE | BE (3EEE ABcd | BE (3EEE BEcE | dcdA FGAd ||
d2 fd cdec | (3dcd fd faaf | d2 fd adfa | bged ceAc |
d2 Ad (3Bcd ec | defd faaf | ~g2 gf edBA | (3Bcd eg (3fgf ef ||d4||
